mobile/24/svg/share-apple-24.svg

<svg width="24" height="24" viewBox="0 0 24 24" fill="none" xmlns="http://www.w3.org/2000/svg">
<path d="M12 3C12.2321 3.00001 12.4546 3.09222 12.6187 3.25635L17.9994 8.63813L16.7618 9.87544L12.875 5.9878V18H11.125V5.98739L7.23695 9.87544L5.99951 8.638L11.3812 3.25628C11.5453 3.09218 11.7679 2.99999 12 3Z" fill="black"/>
<path d="M5 17V19.5C5 19.9138 5.33625 20.25 5.75 20.25H18.25C18.6638 20.25 19 19.9138 19 19.5V17H20.75V19.5C20.75 20.8802 19.6302 22 18.25 22H5.75C4.36975 22 3.25 20.8802 3.25 19.5V17H5Z" fill="black"/>
</svg>

<svg width="24" height="24" fill="none" xmlns="http://www.w3.org/2000/svg"><path d="M12 3c.232 0 .455.092.619.256l5.38 5.382-1.237 1.237-3.887-3.887V18h-1.75V5.987L7.237 9.875 6 8.638l5.381-5.382A.875.875 0 0 1 12 3z" fill="#000"/><path d="M5 17v2.5c0 .414.336.75.75.75h12.5a.75.75 0 0 0 .75-.75V17h1.75v2.5a2.5 2.5 0 0 1-2.5 2.5H5.75a2.5 2.5 0 0 1-2.5-2.5V17H5z" fill="#000"/></svg>
